X: 3043
Q:"Strathspey."
M: C
L: 1/8
K: G
uc |\
f |\
g<b e>g d>gB>g |
d>GB>A G<d d>f |\
[1 g>be>g d>gB>g | a<A c>B Aee :|\
[2 (3gbg (3faf (3ege (3dgd | (3cac (3BgB A<e e |]


